Papirus-nordic/48x48/places/folder-red-development.svg

<svg xmlns="http://www.w3.org/2000/svg" width="48" height="48" version="1"><rect width="40" height="26" x="4" y="17" rx="2" ry="2" opacity=".2"/><path d="M4 34c0 1.108.892 2 2 2h36c1.108 0 2-.892 2-2V12c0-1.108-.892-2-2-2H22V8c0-1.108-.892-2-2-2H6c-1.108 0-2 .892-2 2" fill="#ae4f58"/><rect width="40" height="26" x="4" y="15" rx="2" ry="2" opacity=".2"/><rect width="36" height="16" x="6" y="13" rx="2" ry="2" fill="#e4e4e4"/><rect width="40" height="26" x="4" y="16" rx="2" ry="2" fill="#bf616a"/><path d="M6 6c-1.108 0-2 .892-2 2v1c0-1.108.892-2 2-2h14c1.108 0 2 .892 2 2V8c0-1.108-.892-2-2-2zm16 4v1h20c1.108 0 2 .892 2 2v-1c0-1.108-.892-2-2-2z" opacity=".1" fill="#fff"/><path d="M22.251 22l-.155 1.845a5.505 5.505 0 0 0-1.607.929l-1.677-.79-1.75 3.032 1.521 1.056a5.55 5.55 0 0 0-.084.928c0 .312.027.624.08.932l-1.517 1.052 1.75 3.031 1.672-.787c.481.397 1.026.71 1.611.924L22.25 36h3.5l.155-1.844a5.505 5.505 0 0 0 1.607-.929l1.676.789 1.75-3.032-1.522-1.056a5.54 5.54 0 0 0 .085-.927c0-.312-.028-.624-.081-.932l1.518-1.053-1.75-3.031-1.672.787a5.499 5.499 0 0 0-1.611-.923L25.751 22zm1.75 5.001A2 2 0 1 1 24.002 31 2 2 0 0 1 24.001 27z" fill="#974a4d"/></svg>

<svg xmlns="http://www.w3.org/2000/svg" width="48" height="48" version="1">
 <rect style="opacity:0.2" width="40" height="26" x="4" y="17" rx="2" ry="2"/>
 <path style="fill:#ae4f58" d="M 4,34 C 4,35.108 4.892,36 6,36 H 42 C 43.108,36 44,35.108 44,34 V 12 C 44,10.892 43.108,10 42,10 H 22 V 8 C 22,6.892 21.108,6 20,6 H 6 C 4.892,6 4,6.892 4,8"/>
 <rect style="opacity:0.2" width="40" height="26" x="4" y="15" rx="2" ry="2"/>
 <rect style="fill:#e4e4e4" width="36" height="16" x="6" y="13" rx="2" ry="2"/>
 <rect style="fill:#bf616a" width="40" height="26" x="4" y="16" rx="2" ry="2"/>
 <path style="opacity:0.1;fill:#ffffff" d="M 6,6 C 4.892,6 4,6.892 4,8 V 9 C 4,7.892 4.892,7 6,7 H 20 C 21.108,7 22,7.892 22,9 V 8 C 22,6.892 21.108,6 20,6 Z M 22,10 V 11 H 42 C 43.108,11 44,11.892 44,13 V 12 C 44,10.892 43.108,10 42,10 Z"/>
 <path style="fill:#974a4d" d="M 22.251,22 22.096,23.845 C 21.512,24.061 20.968,24.376 20.489,24.774 L 18.812,23.984 17.062,27.016 18.583,28.072 C 18.529,28.378 18.501,28.689 18.499,29 18.499,29.312 18.526,29.624 18.579,29.932 L 17.062,30.984 18.812,34.015 20.484,33.228 C 20.965,33.625 21.51,33.938 22.095,34.152 L 22.25,36 H 25.75 L 25.905,34.156 C 26.489,33.94 27.033,33.625 27.512,33.227 L 29.188,34.016 30.938,30.984 29.416,29.928 C 29.47,29.622 29.499,29.312 29.501,29.001 29.501,28.689 29.473,28.377 29.42,28.069 L 30.938,27.016 29.188,23.985 27.516,24.772 C 27.035,24.375 26.49,24.063 25.905,23.849 L 25.751,22 Z M 24.001,27.001 C 25.106,27.001 26.001,27.896 26.001,29.001 26.001,30.106 25.106,31.001 24.001,31.001 22.896,31.001 22.001,30.106 22.001,29.001 22.001,27.896 22.896,27.001 24.001,27.001 Z"/>
</svg>
